X: 21677
T: Kilnamona
R: barndance
M: 4/4
K: Dmajor
|:ADFA DEFA|A2 G2 E3F|G2 E2 B3B|B2 A2 F4|
ADFA DEFA|A2 G2 E3F|G2 E2 B2 A2|D4 D4:|
|:f4 fedf|e3e edBc|dedB A2 FA|B2 e2 e2 de|
f4 fedf|e3e edBc|dedB A2 (3FGA|B2 d2 d4|
fAff fAdf|eGee edBc|dedB A2 FA|B2 e2 e2 de|
fAff fAdf|eGee edBc|dedB A2 (3FGA|B2 d2 d4||

